X: 30073
T: Oh Onochie O
R: waltz
M: 3/4
K: Gmajor
|:GA|B4 c2|A3 DGA|B4 D2|E4 DE|G2G2g2|e4 d2|edcB d2|e3 DGA|
B4 c2|A3 DGA|B2E2D2|E3 DGA|B4 dB|A3 DBA|G3 AF2|G4:|
|:fg|a3 gf2|e2f2g2|fe d2 e2|B3 A G/A/B/c/|d4 gf|e3 fg2|d2 edcB|A3 Ddc|
B2 c2 d2|e2 F2 G2|cB A2 G2|d4 gf|e3 dBe|d3 BAd|B3 A B/A/G/A/|G4:|

